X: 15081
T: Hey my Nannie
%R: slip-jig
B: James Oswald "The Caledonian Pocket Companion" v.1 b.5 p.8 #1
S: https://ia800501.us.archive.org/18/items/caledonianpocket01rugg/caledonianpocket01rugg_bw.pdf
Z: 2020 John Chambers <jc:trillian.mit.edu>
M: 9/8
L: 1/8
K: D
"_Brisk"d |\
TB2A FAA FAA | TB2A FAA E2=c | TB2A FAA FA^c | dcB AFA D2 :: g | Tf2d (f/g/a)f efg |
Tf>ed def afd | e3 B2e Tc>BA | Bcd AFD E2=c | TB2A FAA FAc | dcB AFA D2 :|
|: d |\
TB2A FAA afd | TB2A dFD E2d | TB2A FAa bge | fcd AFD D2 :: g | Tf2d afd bge |
(f/g/a)f dfd afd | (e/f/g)e bge dcB | AFA (B/c/d)F E2=c | TB2A FAA gfe | d(B/c/d) AFA D2 :|


